X: 18
T: Whiskey Before Breakfast
I: Whiskey Before Breakfast	R-69	D	reel	Set 26
M: C|
R: reel
K: D
%%textfont       Times-Roman 9.0
%%text Repeat part A 4 times
%%textfont       Times-Roman 7.0
"D"A,B,DE D2FG| AFBF A2EF| "G"G2BG "D"F2AF|1 "A7"EDEF EDB,A, :|2 "A"EDEF "D"D4 |]
|:"D"F2d2 d2Bc| dcdA BAFA| "Em"e4 e2ef| gfed "A7"cABc |
"D"d2fd "A"c2ec| "G"BABd "D"BAFD| "G"G2BG "D"F2AF| "A7"EDEF "D"D2 z2 :|
%%text Roaring Jelly  R-69
%%text 1/20/02 

#include "RightHeader.h"
% ---------- set 27 ----------
% Westfork Gals (D) / Green Willis (D)
%%text Set 27
%%vskip -1cm
